X:10
T:Reuben
C:Traditional
N: Transcribed by Mike Stangeland
R:bluegrass
L:1/8
Q:1/4=230
M:4/4
K:D
|: "D"A4 AG FG | A4 DE FG | AG AB AG FE | D4 DE FG |
| A4 AG FG | "A"AG AB AG FE | "D"D4 A,B, =C^C | D4 D4 :|
|: A4 d4 | A4 D4 | AG Ad AG =F^F | D4 D4 | 
|A4 d4 | "A"AG A=c AG =F^F | "D"D4 A,B, =C^C | D4 D4 :| 

